packages/elvis-assets-icons/icons/svg/src/step_4.svg

<svg width="24" height="24" viewBox="0 0 24 24" fill="none" xmlns="http://www.w3.org/2000/svg">
<path d="M14.7363 7.05002V12.963H15.8838V14.1105H14.7363V16.5H13.3998V14.1105H8.04028V13.0305L13.2378 7.05002H14.7363ZM9.63328 12.963H13.3998V8.62952L9.63328 12.963Z" fill="black"/>
<mask id="path-4-inside-1" fill="white">
<path fill-rule="evenodd" clip-rule="evenodd" d="M12 24C18.6274 24 24 18.6274 24 12C24 5.37258 18.6274 0 12 0C5.37258 0 0 5.37258 0 12C0 18.6274 5.37258 24 12 24ZM22.5882 12C22.5882 17.8477 17.8477 22.5882 12 22.5882C6.15228 22.5882 1.41176 17.8477 1.41176 12C1.41176 6.15228 6.15228 1.41176 12 1.41176C17.8477 1.41176 22.5882 6.15228 22.5882 12Z"/>
</mask>
<path fill-rule="evenodd" clip-rule="evenodd" d="M12 24C18.6274 24 24 18.6274 24 12C24 5.37258 18.6274 0 12 0C5.37258 0 0 5.37258 0 12C0 18.6274 5.37258 24 12 24ZM22.5882 12C22.5882 17.8477 17.8477 22.5882 12 22.5882C6.15228 22.5882 1.41176 17.8477 1.41176 12C1.41176 6.15228 6.15228 1.41176 12 1.41176C17.8477 1.41176 22.5882 6.15228 22.5882 12Z" fill="#29D305"/>
<path d="M21 12C21 16.9706 16.9706 21 12 21V27C20.2843 27 27 20.2843 27 12H21ZM12 3C16.9706 3 21 7.02944 21 12H27C27 3.71573 20.2843 -3 12 -3V3ZM3 12C3 7.02944 7.02944 3 12 3V-3C3.71573 -3 -3 3.71573 -3 12H3ZM12 21C7.02944 21 3 16.9706 3 12H-3C-3 20.2843 3.71573 27 12 27V21ZM12 25.5882C19.5046 25.5882 25.5882 19.5046 25.5882 12H19.5882C19.5882 16.1909 16.1909 19.5882 12 19.5882V25.5882ZM-1.58824 12C-1.58824 19.5046 4.49542 25.5882 12 25.5882V19.5882C7.80913 19.5882 4.41176 16.1909 4.41176 12H-1.58824ZM12 -1.58824C4.49542 -1.58824 -1.58824 4.49542 -1.58824 12H4.41176C4.41176 7.80913 7.80913 4.41176 12 4.41176V-1.58824ZM25.5882 12C25.5882 4.49542 19.5046 -1.58824 12 -1.58824V4.41176C16.1909 4.41176 19.5882 7.80913 19.5882 12H25.5882Z" fill="#29D305" mask="url(#path-4-inside-1)"/>
</svg>

<svg width="24" height="24" fill="none" xmlns="http://www.w3.org/2000/svg"><mask id="a" fill="#fff"><path fill-rule="evenodd" clip-rule="evenodd" d="M12 24c6.627 0 12-5.373 12-12S18.627 0 12 0 0 5.373 0 12s5.373 12 12 12zm10.588-12c0 5.848-4.74 10.588-10.588 10.588-5.848 0-10.588-4.74-10.588-10.588C1.412 6.152 6.152 1.412 12 1.412c5.848 0 10.588 4.74 10.588 10.588z"/></mask><path fill-rule="evenodd" clip-rule="evenodd" d="M12 24c6.627 0 12-5.373 12-12S18.627 0 12 0 0 5.373 0 12s5.373 12 12 12zm10.588-12c0 5.848-4.74 10.588-10.588 10.588-5.848 0-10.588-4.74-10.588-10.588C1.412 6.152 6.152 1.412 12 1.412c5.848 0 10.588 4.74 10.588 10.588z" fill="#29D305"/><path d="M21 12a9 9 0 01-9 9v6c8.284 0 15-6.716 15-15h-6zm-9-9a9 9 0 019 9h6c0-8.284-6.716-15-15-15v6zm-9 9a9 9 0 019-9v-6C3.716-3-3 3.716-3 12h6zm9 9a9 9 0 01-9-9h-6c0 8.284 6.716 15 15 15v-6zm0 4.588c7.505 0 13.588-6.083 13.588-13.588h-6A7.588 7.588 0 0112 19.588v6zM-1.588 12c0 7.505 6.083 13.588 13.588 13.588v-6A7.588 7.588 0 014.412 12h-6zM12-1.588C4.495-1.588-1.588 4.495-1.588 12h6A7.588 7.588 0 0112 4.412v-6zM25.588 12c0-7.505-6.083-13.588-13.588-13.588v6A7.588 7.588 0 0119.588 12h6z" fill="#29D305" mask="url(#a)"/><path d="M14.39 7v6.062h1.26v1.316h-1.26V16.8h-1.526v-2.422H7.6v-1.246L12.654 7h1.736zm-5.152 6.062h3.626V8.638l-3.626 4.424z" fill="#000"/></svg>
